X:107
T:Grand Chien
R:reel
M:4/4
L:1/8
K:G
GA |: B2 Bc BAGB | d2 dc BAGB | cdcB AD FA | dedc B2 GA |
B2 Bc BAGB | d2 dc BAGB | cdcB AD FA | G2 B2 G4 ::
g2 gf efge | d2 dc BAGB | cdcB AD FA | dedc B4 |
[1 g2 gf efge | d2 dc BAGB | cdcB AD FA | dedc B4 :|2
GA | B2 Bc BAGB | d2 dc BAGB | cdcB AD FA | G2 B2 G4 |]
